X:117
T:Henchey's Delight
R:jig
M:6/8
L:1/8
K:Gmaj
|:A|BAB GAG|FDE F2G|AGA fed|cAG FGA|
BAB GAG|FDE F2G|AGA fed|cAF G2:|
|:d|gfg afd|gfg a2f|gfg b2g|a2g fga|
gfe fed|fed ^cde|fef ded|cAF G2:|

